packages/kaspersky-hexa-ui-icons/src/iconsSVGs/32/Settings1.svg

<svg width="32" height="32" viewBox="0 0 32 32" fill="none" xmlns="http://www.w3.org/2000/svg">
<path fill-rule="evenodd" clip-rule="evenodd" d="M16.126 9H5C4.44772 9 4 8.55228 4 8C4 7.44772 4.44772 7 5 7H16.126C16.5701 5.27477 18.1362 4 20 4C21.8638 4 23.4299 5.27477 23.874 7H27C27.5523 7 28 7.44772 28 8C28 8.55228 27.5523 9 27 9H23.874C23.4299 10.7252 21.8638 12 20 12C18.1362 12 16.5701 10.7252 16.126 9ZM18 8C18 6.89543 18.8954 6 20 6C21.1046 6 22 6.89543 22 8C22 9.10457 21.1046 10 20 10C18.8954 10 18 9.10457 18 8Z" fill="black"/>
<path fill-rule="evenodd" clip-rule="evenodd" d="M4 16C4 15.4477 4.44772 15 5 15H8.12602C8.57006 13.2748 10.1362 12 12 12C13.8638 12 15.4299 13.2748 15.874 15H27C27.5523 15 28 15.4477 28 16C28 16.5523 27.5523 17 27 17H15.874C15.4299 18.7252 13.8638 20 12 20C10.1362 20 8.57006 18.7252 8.12602 17H5C4.44772 17 4 16.5523 4 16ZM10 16C10 14.8954 10.8954 14 12 14C13.1046 14 14 14.8954 14 16C14 17.1046 13.1046 18 12 18C10.8954 18 10 17.1046 10 16Z" fill="black"/>
<path fill-rule="evenodd" clip-rule="evenodd" d="M4 24C4 23.4477 4.44772 23 5 23H16.126C16.5701 21.2748 18.1362 20 20 20C21.8638 20 23.4299 21.2748 23.874 23H27C27.5523 23 28 23.4477 28 24C28 24.5523 27.5523 25 27 25H23.874C23.4299 26.7252 21.8638 28 20 28C18.1362 28 16.5701 26.7252 16.126 25H5C4.44772 25 4 24.5523 4 24ZM18 24C18 22.8954 18.8954 22 20 22C21.1046 22 22 22.8954 22 24C22 25.1046 21.1046 26 20 26C18.8954 26 18 25.1046 18 24Z" fill="black"/>
</svg>

<svg xmlns="http://www.w3.org/2000/svg" width="32" height="32" fill="none" viewBox="0 0 32 32"><path fill="#000" fill-rule="evenodd" d="M16.126 9H5c-.552 0-1-.448-1-1s.448-1 1-1h11.126c.444-1.725 2.01-3 3.874-3s3.43 1.275 3.874 3H27c.552 0 1 .448 1 1s-.448 1-1 1h-3.126c-.444 1.725-2.01 3-3.874 3s-3.43-1.275-3.874-3M18 8c0-1.105.895-2 2-2s2 .895 2 2-.895 2-2 2-2-.895-2-2M4 16c0-.552.448-1 1-1h3.126c.444-1.725 2.01-3 3.874-3s3.43 1.275 3.874 3H27c.552 0 1 .448 1 1s-.448 1-1 1H15.874c-.444 1.725-2.01 3-3.874 3s-3.43-1.275-3.874-3H5c-.552 0-1-.448-1-1m6 0c0-1.105.895-2 2-2s2 .895 2 2-.895 2-2 2-2-.895-2-2m-6 8c0-.552.448-1 1-1h11.126c.444-1.725 2.01-3 3.874-3s3.43 1.275 3.874 3H27c.552 0 1 .448 1 1s-.448 1-1 1h-3.126c-.444 1.725-2.01 3-3.874 3s-3.43-1.275-3.874-3H5c-.552 0-1-.448-1-1m14 0c0-1.105.895-2 2-2s2 .895 2 2-.895 2-2 2-2-.895-2-2" clip-rule="evenodd"/></svg>
